X: 11
T: The Knife Grinder
R: reel
M: C
L: 1/8
Z: 2010,2014 John Chambers <jc:trillian.mit.edu>
B: John Johnson ed. "Twenty Four Country Dances", p.78 London 1766
K: D
|: defe d2A2 | gfgf e2A2 | fedc d2B2 | AGFE D4  :|
|: dcde dcde | dcde d2A2 | edef edef | edef e2A2 |
   gfga gfga | gfga g2A2 | fefg fefg | fefg f2A2 |
   defe d2A2 | gfgf e2A2 | fedc d2B2 | AGFE D4  :|
% - - - - - - - - - - - - - - - - - - - - - - - - -
%%begintext align
%% First Man set to the 2d Wo & turn his
%% Partner :| first Wo set to the 2d Man & turn
%% her Partner :| cross over one Cu & turn
%% foot it all 6 & Right & Left at top |
%%endtext
% - - - - - - - - - - - - - - - - - - - - - - - - -
